file/gopro.svg

<svg clip-rule="evenodd" fill-rule="evenodd" stroke-linejoin="round" stroke-miterlimit="1.41421" viewBox="0 0 560 400" xmlns="http://www.w3.org/2000/svg"><g fill-rule="nonzero" transform="matrix(4.66926 0 0 4.66926 100 144.903)"><path d="m28 8.9h-4.1c-1.9 0-2.8-.3-2.8-1v-3.2c0-.6.9-1 2.8-1h4.1c1.9 0 2.8.3 2.8 1v3.2c0 .7-.9 1-2.8 1m0 1.5c3.4 0 5.1-.9 5.1-2.6v-3c0-1.8-1.7-2.6-5.1-2.6h-4.1c-3.4 0-5.1.9-5.1 2.6v3c0 1.8 1.7 2.6 5.1 2.6z"/><path d="m72 8.9h-4.1c-1.9 0-2.8-.3-2.8-1v-3.2c0-.6.9-1 2.8-1h4.1c1.9 0 2.8.3 2.8 1v3.2c0 .7-.9 1-2.8 1m0 1.5c3.4 0 5.1-.9 5.1-2.6v-3c0-1.8-1.7-2.6-5.1-2.6h-4.1c-3.4 0-5.1.9-5.1 2.6v3c0 1.8 1.7 2.6 5.1 2.6z"/><path d="m16.5 7.8v-2.1c0-.4-.3-.6-.9-.6h-5c-.5 0-.8.4-.8.8s.4.8.8.8h3.4v1.1c0 .3-.4.7-1.2.8-.6.2-1.1.2-1.6.2h-5.5c-2.2 0-3.3-.4-3.3-1.1v-5.1c0-.7 1.3-1 3.9-1h1.5c.6 0 .9-.3.9-.8.1-.5-.2-.8-.8-.8h-2.2c-1.3 0-2.5.1-3.6.5-1.3.4-2.1 1.1-2.1 2.1v5.2c0 1 .7 1.7 2 2.1 1 .3 2.2.5 3.7.5h5.5c1.3 0 2.5-.2 3.4-.5 1.2-.5 1.9-1.2 1.9-2.1"/><path d="m49.8 4.1c0 .8-1.1 1.1-3.2 1.1h-8.6v-3.7h8.6c2.1 0 3.2.2 3.2 1.1zm.3-3.7c-1-.2-2.1-.4-3.5-.4h-10.3c-.4 0-.7.3-.7.7v9.1c0 .5.3.7.9.7h.7c.6 0 .9-.2.9-.7v-3.1h8.6c1.5 0 2.6-.2 3.6-.5 1.3-.5 2-1.2 2-2.3v-1.6c-.1-.8-.8-1.4-2.2-1.9"/><path d="m60.3 2.2c-2.1 0-3 0-4.3.5-1.2.5-1.7 1.3-1.7 2.1v5c0 .4.3.7.8.7h.7c.5 0 .8-.2.8-.7v-5c0-.7.9-1 2.7-1h1c.6 0 .9-.3.9-.8-.1-.5-.4-.8-.9-.8"/></g><g stroke-width="4.66926"><path d="m100 205.60338h77.976642v49.494156h-77.976642z" fill="#109dd9"/><path d="m193.852126 205.60338h77.976642v49.494156h-77.976642z" fill="#109dd9"/><path d="m287.704252 205.60338h77.976642v49.494156h-77.976642z" fill="#075daa"/><path d="m381.556378 205.60338h77.976642v49.494156h-77.976642z" fill="#e8e8ea"/></g></svg>

<?xml version="1.0" encoding="UTF-8" standalone="no"?>
<!DOCTYPE svg PUBLIC "-//W3C//DTD SVG 1.1//EN" "http://www.w3.org/Graphics/SVG/1.1/DTD/svg11.dtd">
<svg width="100%" height="100%" viewBox="0 0 560 400" version="1.1" xmlns="http://www.w3.org/2000/svg" xmlns:xlink="http://www.w3.org/1999/xlink" xml:space="preserve" xmlns:serif="http://www.serif.com/" style="fill-rule:evenodd;clip-rule:evenodd;stroke-linejoin:round;stroke-miterlimit:1.41421;">
    <g transform="matrix(4.66926,0,0,4.66926,100,144.903)">
        <g>
            <path d="M28,8.9L23.9,8.9C22,8.9 21.1,8.6 21.1,7.9L21.1,4.7C21.1,4.1 22,3.7 23.9,3.7L28,3.7C29.9,3.7 30.8,4 30.8,4.7L30.8,7.9C30.8,8.6 29.9,8.9 28,8.9M28,10.4C31.4,10.4 33.1,9.5 33.1,7.8L33.1,4.8C33.1,3 31.4,2.2 28,2.2L23.9,2.2C20.5,2.2 18.8,3.1 18.8,4.8L18.8,7.8C18.8,9.6 20.5,10.4 23.9,10.4L28,10.4Z" style="fill-rule:nonzero;"/>
            <path d="M72,8.9L67.9,8.9C66,8.9 65.1,8.6 65.1,7.9L65.1,4.7C65.1,4.1 66,3.7 67.9,3.7L72,3.7C73.9,3.7 74.8,4 74.8,4.7L74.8,7.9C74.8,8.6 73.9,8.9 72,8.9M72,10.4C75.4,10.4 77.1,9.5 77.1,7.8L77.1,4.8C77.1,3 75.4,2.2 72,2.2L67.9,2.2C64.5,2.2 62.8,3.1 62.8,4.8L62.8,7.8C62.8,9.6 64.5,10.4 67.9,10.4L72,10.4Z" style="fill-rule:nonzero;"/>
            <path d="M16.5,7.8L16.5,5.7C16.5,5.3 16.2,5.1 15.6,5.1L10.6,5.1C10.1,5.1 9.8,5.5 9.8,5.9C9.8,6.3 10.2,6.7 10.6,6.7L14,6.7L14,7.8C14,8.1 13.6,8.5 12.8,8.6C12.2,8.8 11.7,8.8 11.2,8.8L5.7,8.8C3.5,8.8 2.4,8.4 2.4,7.7L2.4,2.6C2.4,1.9 3.7,1.6 6.3,1.6L7.8,1.6C8.4,1.6 8.7,1.3 8.7,0.8C8.8,0.3 8.5,0 7.9,0L5.7,0C4.4,0 3.2,0.1 2.1,0.5C0.8,0.9 0,1.6 0,2.6L0,7.8C0,8.8 0.7,9.5 2,9.9C3,10.2 4.2,10.4 5.7,10.4L11.2,10.4C12.5,10.4 13.7,10.2 14.6,9.9C15.8,9.4 16.5,8.7 16.5,7.8" style="fill-rule:nonzero;"/>
            <path d="M49.8,4.1C49.8,4.9 48.7,5.2 46.6,5.2L38,5.2L38,1.5L46.6,1.5C48.7,1.5 49.8,1.7 49.8,2.6L49.8,4.1ZM50.1,0.4C49.1,0.2 48,0 46.6,0L36.3,0C35.9,0 35.6,0.3 35.6,0.7L35.6,9.8C35.6,10.3 35.9,10.5 36.5,10.5L37.2,10.5C37.8,10.5 38.1,10.3 38.1,9.8L38.1,6.7L46.7,6.7C48.2,6.7 49.3,6.5 50.3,6.2C51.6,5.7 52.3,5 52.3,3.9L52.3,2.3C52.2,1.5 51.5,0.9 50.1,0.4" style="fill-rule:nonzero;"/>
            <path d="M60.3,2.2C58.2,2.2 57.3,2.2 56,2.7C54.8,3.2 54.3,4 54.3,4.8L54.3,9.8C54.3,10.2 54.6,10.5 55.1,10.5L55.8,10.5C56.3,10.5 56.6,10.3 56.6,9.8L56.6,4.8C56.6,4.1 57.5,3.8 59.3,3.8L60.3,3.8C60.9,3.8 61.2,3.5 61.2,3C61.1,2.5 60.8,2.2 60.3,2.2" style="fill-rule:nonzero;"/>
        </g>
        <rect x="0" y="13" width="16.7" height="10.6" style="fill:rgb(16,157,217);"/>
        <rect x="20.1" y="13" width="16.7" height="10.6" style="fill:rgb(16,157,217);"/>
        <rect x="40.2" y="13" width="16.7" height="10.6" style="fill:rgb(7,93,170);"/>
        <rect x="60.3" y="13" width="16.7" height="10.6" style="fill:rgb(232,232,234);"/>
    </g>
</svg>
